images/slack.svg

<svg height="30" viewBox="0 0 30 30" width="30" xmlns="http://www.w3.org/2000/svg"><g fill="none" fill-rule="evenodd"><path d="m0 0h30v29.992h-30z"/><g fill-rule="nonzero"><path d="m11.313 0c-1.706.001-3.086 1.383-3.085 3.085-.001 1.702 1.38 3.084 3.086 3.085h3.086v-3.084c.001-1.702-1.38-3.083-3.087-3.086.001 0 .001 0 0 0m0 8.229h-8.227c-1.706 0-3.087 1.381-3.086 3.085-.003 1.702 1.38 3.083 3.085 3.086h8.228c1.705-.001 3.087-1.383 3.086-3.085.001-1.704-1.38-3.085-3.086-3.086z" fill="#36c5f0"/><path d="m30 11.314c.001-1.703-1.38-3.084-3.086-3.085-1.706 0-3.088 1.382-3.087 3.085v3.086h3.087c1.706-.001 3.086-1.383 3.086-3.086zm-8.229 0v-8.229c.002-1.701-1.379-3.082-3.085-3.085-1.706.001-3.086 1.383-3.086 3.085v8.229c-.003 1.702 1.38 3.083 3.085 3.086 1.706-.001 3.088-1.383 3.086-3.086z" fill="#2eb67d"/><path d="m18.686 30c1.706-.001 3.087-1.383 3.086-3.085.001-1.702-1.38-3.083-3.086-3.085h-3.086v3.085c-.001 1.701 1.38 3.082 3.086 3.085zm0-8.23h8.228c1.706 0 3.087-1.382 3.086-3.084.003-1.702-1.38-3.083-3.085-3.086h-8.228c-1.705.001-3.087 1.383-3.086 3.085-.001 1.703 1.38 3.085 3.085 3.086z" fill="#ecb22e"/><path d="m0 18.685c-.001 1.702 1.38 3.084 3.086 3.085 1.706-.001 3.088-1.383 3.087-3.085v-3.085h-3.087c-1.706.001-3.086 1.383-3.086 3.085zm8.229 0v8.229c-.003 1.702 1.379 3.083 3.085 3.086 1.706-.001 3.087-1.383 3.086-3.085v-8.227c.003-1.703-1.38-3.084-3.085-3.087-1.707 0-3.088 1.382-3.086 3.084 0 0 0 .001 0 0" fill="#e01e5a"/></g></g></svg>

<svg xmlns="http://www.w3.org/2000/svg" width="30" height="30" viewBox="0 0 30 30">
    <g fill="none" fill-rule="evenodd">
        <path d="M0 0H30V29.992H0z"/>
        <g fill-rule="nonzero">
            <path fill="#36C5F0" d="M11.313 0C9.607.001 8.227 1.383 8.228 3.085c-.001 1.702 1.38 3.084 3.086 3.085H14.4V3.086C14.401 1.384 13.02.003 11.313 0c.001 0 .001 0 0 0m0 8.229H3.086C1.38 8.229-.001 9.61 0 11.314c-.003 1.702 1.38 3.083 3.085 3.086h8.228c1.705-.001 3.087-1.383 3.086-3.085.001-1.704-1.38-3.085-3.086-3.086z"/>
            <path fill="#2EB67D" d="M30 11.314c.001-1.703-1.38-3.084-3.086-3.085-1.706 0-3.088 1.382-3.087 3.085V14.4h3.087C28.62 14.399 30 13.017 30 11.314zm-8.229 0V3.085C21.773 1.384 20.392.003 18.686 0 16.98.001 15.6 1.383 15.6 3.085v8.229c-.003 1.702 1.38 3.083 3.085 3.086 1.706-.001 3.088-1.383 3.086-3.086z"/>
            <path fill="#ECB22E" d="M18.686 30c1.706-.001 3.087-1.383 3.086-3.085.001-1.702-1.38-3.083-3.086-3.085H15.6v3.085c-.001 1.701 1.38 3.082 3.086 3.085zm0-8.23h8.228c1.706 0 3.087-1.382 3.086-3.084.003-1.702-1.38-3.083-3.085-3.086h-8.228c-1.705.001-3.087 1.383-3.086 3.085-.001 1.703 1.38 3.085 3.085 3.086z"/>
            <path fill="#E01E5A" d="M0 18.685c-.001 1.702 1.38 3.084 3.086 3.085 1.706-.001 3.088-1.383 3.087-3.085V15.6H3.086C1.38 15.601 0 16.983 0 18.685zm8.229 0v8.229c-.003 1.702 1.379 3.083 3.085 3.086 1.706-.001 3.087-1.383 3.086-3.085v-8.227c.003-1.703-1.38-3.084-3.085-3.087-1.707 0-3.088 1.382-3.086 3.084 0 0 0 .001 0 0"/>
        </g>
    </g>
</svg>
